packages/icons/src/assets/database.svg

<svg width="16" height="16" viewBox="0 0 16 16" fill="none" xmlns="http://www.w3.org/2000/svg"><path d="M8.00488 1.24023C11.7245 1.24023 14.7402 2.32074 14.7402 4.04004L14.7393 4.07617C14.7377 4.12697 14.7326 4.17742 14.7246 4.22754V12.7637C14.7246 13.3182 14.3669 13.7322 13.9922 14.0098C13.6055 14.2962 13.0859 14.5283 12.5 14.7119C11.3206 15.0814 9.72968 15.2998 8 15.2998C6.27033 15.2998 4.67941 15.0814 3.5 14.7119C2.91398 14.5283 2.39356 14.2963 2.00684 14.0098C1.63223 13.7322 1.27541 13.318 1.27539 12.7637V4.13574C1.27282 4.10393 1.26953 4.07211 1.26953 4.04004C1.26953 2.32076 4.2853 1.24026 8.00488 1.24023ZM13.4746 11.501C13.1824 11.6494 12.8503 11.78 12.4922 11.8916C11.3161 12.2579 9.72774 12.4756 8 12.4756C6.27226 12.4756 4.68389 12.2579 3.50781 11.8916C3.14965 11.78 2.81759 11.6494 2.52539 11.501V12.7598C2.52739 12.7695 2.54954 12.8566 2.75098 13.0059C2.98153 13.1767 3.35543 13.3563 3.87305 13.5186C4.90137 13.8408 6.3609 14.0498 8 14.0498C9.63889 14.0498 11.0977 13.8407 12.126 13.5186C12.6438 13.3563 13.0184 13.1767 13.249 13.0059C13.4505 12.8566 13.4726 12.7695 13.4746 12.7598V11.501ZM13.4746 8.55273C13.1844 8.70688 12.855 8.84259 12.5 8.95898C11.3209 9.34554 9.73013 9.5752 8 9.5752C6.26987 9.5752 4.67905 9.34554 3.5 8.95898C3.145 8.84259 2.81564 8.70688 2.52539 8.55273V10.0283C2.55682 10.0761 2.62005 10.1465 2.73535 10.2314C2.96914 10.4036 3.34588 10.4036 3.86523 10.7461C4.89691 11.0674 6.35895 11.2754 8 11.2754C9.64104 11.2754 11.1031 11.0674 12.1348 10.7461C12.6541 10.4036 13.0309 10.4036 13.2646 10.2314C13.3799 10.1465 13.4432 10.0761 13.4746 10.0283V8.55273ZM2.52539 7.04297C2.55337 7.09469 2.61282 7.17523 2.74707 7.2793C2.98061 7.46033 3.35647 7.64964 3.87402 7.81934C4.9027 8.15652 6.36152 8.375 8 8.375C9.63875 8.375 11.0983 8.15662 12.127 7.81934C12.6443 7.64967 13.0194 7.46028 13.2529 7.2793C13.3872 7.17523 13.4466 7.09469 13.4746 7.04297V5.67285C12.2519 6.37915 10.2578 6.83984 8.00488 6.83984C5.74557 6.83983 3.74711 6.37572 2.52539 5.66602V7.04297ZM8.00488 2.49023C6.2455 2.49025 4.73101 2.748 3.70508 3.15625C2.62522 3.58605 2.52757 3.97287 2.52051 4.0332C2.52831 4.0568 2.56069 4.12515 2.67578 4.23828C2.86522 4.42445 3.2036 4.64944 3.72266 4.86523C4.75542 5.29459 6.26862 5.58983 8.00488 5.58984C9.74112 5.58984 11.2543 5.29457 12.2871 4.86523C12.8061 4.64947 13.1445 4.42443 13.334 4.23828C13.4489 4.12537 13.4814 4.05693 13.4893 4.0332C13.4822 3.97278 13.3844 3.58598 12.3047 3.15625C11.2787 2.74804 9.76419 2.49023 8.00488 2.49023Z" fill="currentColor"/></svg>

<svg xmlns="http://www.w3.org/2000/svg" width="16" height="16" viewBox="0 0 16 16"><path d="M8.005 1.24c3.72 0 6.735 1.08 6.735 2.8v.036a1 1 0 0 1-.015.152v8.536c0 .554-.358.968-.733 1.246-.387.286-.906.518-1.492.702-1.18.37-2.77.588-4.5.588s-3.32-.219-4.5-.588c-.586-.184-1.106-.416-1.493-.702-.375-.278-.732-.692-.732-1.246V4.136q-.004-.048-.005-.096c0-1.72 3.015-2.8 6.735-2.8m5.47 10.261a6.4 6.4 0 0 1-.983.39c-1.176.367-2.764.585-4.492.585s-3.316-.218-4.492-.584a6.4 6.4 0 0 1-.983-.391v1.259c.002.01.025.097.226.246.23.17.604.35 1.122.513 1.028.322 2.488.53 4.127.53s3.098-.208 4.126-.53c.518-.163.892-.342 1.123-.513.201-.15.224-.236.226-.246zm0-2.948c-.29.154-.62.29-.975.406-1.18.387-2.77.616-4.5.616s-3.321-.23-4.5-.616a6 6 0 0 1-.975-.406v1.475a.9.9 0 0 0 .21.203c.234.173.61.173 1.13.515 1.032.321 2.494.53 4.135.53s3.103-.209 4.135-.53c.52-.342.896-.342 1.13-.515a.9.9 0 0 0 .21-.203zm-10.95-1.51a.8.8 0 0 0 .222.236c.234.181.61.37 1.127.54 1.029.338 2.488.556 4.126.556s3.098-.218 4.127-.556c.517-.17.892-.359 1.126-.54a.8.8 0 0 0 .222-.236v-1.37c-1.223.706-3.217 1.167-5.47 1.167-2.26 0-4.258-.464-5.48-1.174zm5.48-4.553c-1.76 0-3.274.258-4.3.666-1.08.43-1.177.817-1.184.877.007.024.04.092.155.205.19.186.528.411 1.047.627 1.032.43 2.546.725 4.282.725s3.25-.295 4.282-.725c.52-.216.857-.44 1.047-.627a.6.6 0 0 0 .155-.205c-.007-.06-.105-.447-1.184-.877-1.026-.408-2.54-.666-4.3-.666"/></svg>
